X:1
T:For though a cloud
T:For though a cloud 
T:(Cavatina for Soprano.)
T:Carl Maria von Weber
T:Arr. by W.D.
T:The Library of Congress Music for the Nation: American Sheet Music, ca. 1870 to 1885 collection is in the public domain and is free to use and reuse.
C:C. M. v.  Weber
Z:Arr. by W.D.
Z:The Library of Congress Music for the Nation: American Sheet Music, ca. 1870 to 1885 collection is in the public domain and is free to use and reuse.
L:1/8
Q:1/4=71
M:3/4
K:Ab
V:1 bass nm="Violoncello" snm="Vc."
V:1
"_Piano.""^Adagio." [A,,E,A,C] [A,,E,A,C]2 [A,,E,A,C]2 [A,,E,A,C]- | [A,,E,A,C] [A,,E,A,C]2 | %2
"^Cello." z!<(! (3(E,A,C)!<)! |!mf! (F3 E) (B,D/>C/) | (A,2 E,3) C | %5
 (C>!<(!=A,)!<)! (B,F) (E/D/C/B,/) |!>(! (A,2{!fermata!B,!fermata!A,} !fermata!G,)!>)! z z2 | %7
!pp! G,6- | G,2 z2 E,2 | (F,4 B,2) | D3!<(! (E,A,C)!<)! |!mf! (F3 E)!>(! (B,D/C/)!>)! | %12
 A,2 z!<(! (CC_C)!<)! |!>(! (A,3 G,)!>)! (F,A,) | G,2 z!<(! (E,G,B,)!<)! | (F3 E) (DB,/>A,/) | %16
!>(! (A,2 G,)!>)! z z2 |!p! (G,6 | A,2) z2 z2 | (G,6 | A,2) z (E,A,C) | (E2 C4) | (E2 C2)!<(! A,2 | %23
 G,4!<)! C2 | C4!pp! z2 | D,,4 z2 | E,,2 z2 E,,2 | A,,2 z (E,A,C) | B,2 z2 z2 | z2 z (E,A,C) | %30
 G,2 z2 !fermata!z2 | z2 z!<(! (E,A,C)!<)! |!>(! (F3 _F ED/>B,/)!>)! | A,4 z2 | E,4 z2 | %35
 =D2 z2 z2 | z6 | z6 | z2 z (B,EG) | (FE) =D(E/G/) (FE) | =D4[K:bass]!pp! =D,2 |!<(! E,4 z2 | %42
 E,4 (_D,2 | _C,6)!<)! |!mf!!<(! B,,6!<)! |!mf!!>(! _G,,6!>)! | z2!>(! (_G3 F)!>)! | %47
!>(! (_F4- FE)!>)! | D4!p! (CA,) | G,6 | A,4 (CA,) | G,6 | A,3 (E,A,C) | (E2 C4) | %54
!<(! (E2 C2 A,2)!<)! |!f! G,4 C2 | C4!pp! z2 | D,,2 z2 z2 | E,,2 z2 E,,2 | A,,2 z (E,A,C) | %60
 B,2 z2 z2 | z2 z (E,A,C) | G,2 z2 !fermata!z2 | z2 z!<(! (E,A,C)!<)! |!>(! (F3 _F ED/>B,/)!>)! | %65
!pp! A,2 A,2 A,2 |{!fermata!G,!fermata!A,!fermata!B,} !fermata!A,6 |] %67

